X: 27276
T: Miss Thompson's
R: hornpipe
M: 4/4
K: Dmajor
|:A/B/c|d2 df edcB|A2 AB AGFE|DFAF DGBG|DFAF GFED|
d2 df edcB|A2 AB AGFE|DFAd fedc|d2 dc d2:|
|:cd|ecec Acec|fdfd Adfd|gege fdfd|edcB A2 FA|
BGBG DGBd|AFAF DFAd|DFAd fedc|d2 dc d2:|

